!!!COM:	Bach, Johann Sebastian
!!!CDT:	1685/02/21/-1750/07/28/
!!!OTL@@DE:	Komm, heiliger Geist, Herre Gott
!!!SCT:	BWV 226
!!!PC#:	69
!!!AGN:	chorale
**kern	**kern	**kern	**kern
*ICvox	*ICvox	*ICvox	*ICvox
*Ibass	*Itenor	*Ialto	*Isoprn
*I"Bass	*I"Tenor	*I"Alto	*I"Soprano
*	*oclefC4	*oclefC3	*oclefC1
*clefF4	*clefGv2	*clefG2	*clefG2
*k[f#]	*k[f#]	*k[f#]	*k[f#]
*G:	*G:	*G:	*G:
*M4/4	*M4/4	*M4/4	*M4/4
*met(c)	*met(c)	*met(c)	*met(c)
*MM100	*MM100	*MM100	*MM100
4G	4B	4g	4dd
=1	=1	=1	=1
4C	8cL	4g	4ee
.	8BJ	.	.
4D	4A	4f#	8ddL
.	.	.	8ccJ
4E	4G	4g	8bL
.	.	.	8ccJ
8BBL	4G	8dL	4dd
8CJ	.	8eJ	.
=2	=2	=2	=2
2D;	2d;	2f#;	2a;
8GL	4d	4g	4b
8F#J	.	.	.
4E	4G	4g	4cc#
=3	=3	=3	=3
2D;	2A;	2f#;	2dd;
4r	4ry	4ry	4r
4BB	4G	4g	4dd
=4	=4	=4	=4
4C	8cL	4g	4ee
.	8BJ	.	.
4D	8AL	8f#L	4dd
.	8GJ	8eJ	.
8CL	8F#L	4d	8aL
8BBJ	8GJ	.	8bJ
4AA	4C	8eL	4cc
.	.	8f#J	.
=5	=5	=5	=5
8BBL	4D	4g	4b
8CJ	.	.	.
4D	8dL	4f#	4a
.	8cJ	.	.
4GG;	4B;	4d;	4g;
4G	4B	4d	4g
=6	=6	=6	=6
4F#	4A	4d	8aL
.	.	.	8bJ
8EL	8GL	4e	4cc
8F#J	8AJ	.	.
4G	4B	8dL	8bL
.	.	8eJ	8ccJ
8F#L	8AL	[4f#	[4dd
8EJ	8GJ	.	.
=7	=7	=7	=7
8F#L	4A	8f#L]	4dd]
8E	.	8gJ	.
8D	4d	8f#L	4a
8C#J	.	8eJ	.
8BBL	4d	8dL	8gL
8GGJ	.	8BJ	8f#J
4AA	8AL	4c#	4e
.	8GJ	.	.
=8	=8	=8	=8
2D;	2F#;	2A;	2d;
4r	4ry	4ry	4r
8DL	4F#	4A	4d
8CnXJ	.	.	.
=9	=9	=9	=9
8BBL	4G	8dL	4g
8C	.	8eJ	.
8BB	4c	4f#	4a
8AAJ	.	.	.
4GG	8dL	4.g	8bL
.	8cJ	.	8ccJ
8GL	8BL	.	[4dd
8FJ	8AJ	8a	.
=10	=10	=10	=10
4E	8G#L	4.b	4dd]
.	8F#XJ	.	.
4AA	4E	.	4cc
.	.	8a	.
4BB	4D#	8gL	4b
.	.	8f#J	.
4C	4E	4e	4a
=11	=11	=11	=11
2BB;	2F#;	2d#;	2b;
4r	4ry	4ry	4r
4E	8GnXL	4g	8bL
.	8AJ	.	8ccJ
=12	=12	=12	=12
4B	4B	8f#L	4ddnX
.	.	8g#J	.
8AL	4c#	4a	4ee
8GJ	.	.	.
8F#L	4d	8aL	4dd
8EJ	.	8gJ	.
4D	8dL	8f#L	4a
.	8cJ	8eJ	.
=13	=13	=13	=13
8GL	8BL	4d	4b
8F#J	8AJ	.	.
4E	4G	4e	4cc#
4D;	4A;	4f#;	4dd;
4G	4B	8gL	4dd
.	.	8f#J	.
=14	=14	=14	=14
4CnX	4cnX	8eL	4ee
.	.	8f#J	.
8BBL	4d	4g	4dd
8CJ	.	.	.
4D	4d	4f#	8aL
.	.	.	8bJ
8EL	8GL	4e	4ccnX
8F#J	8AJ	.	.
=15	=15	=15	=15
8GL	8BL	8dL	4b
8CJ	8GJ	8eJ	.
4D	8dL	4f#	4a
.	8cJ	.	.
4GG;	4B;	4d;	4g;
8CL	4c	4e	4g
8BBJ	.	.	.
=16	=16	=16	=16
4AA	8cL	4e	8aL
.	8BJ	.	8bJ
4A	4A	8eL	4cc
.	.	8f#J	.
4E	8BL	[2g	8bL
.	8A	.	8ccJ
8BBL	8G	.	[4dd
8CJ	8AJ	.	.
=17	=17	=17	=17
8DL	8BL	4g]	4dd]
8E	8c#J	.	.
8F#	4d	4f#	4a
8DJ	.	.	.
8BL	4d	8gL	8gL
8GJ	.	8dJ	8f#J
4A	8AL	8dL	4e
.	8GJ	8c#J	.
=18	=18	=18	=18
2D;	2F#;	2A;	2d;
4r	4ry	4ry	4r
4BB	4F#	8dL	4d
.	.	8cnXJ	.
=19	=19	=19	=19
4E	8GL	8BL	4g
.	8cJ	8eJ	.
4F#	8BL	8dL	4a
.	8AJ	8cJ	.
8GL	4.G	4.B	8bL
8AJ	.	.	8ccJ
8BL	.	.	[4dd
8AJ	8A	16cLL	.
.	.	16dJJ	.
=20	=20	=20	=20
8G#L	4.B	4e	4dd]
8EJ	.	.	.
4A	.	4e	4cc
.	8A	.	.
8EL	8GL	4e	4b
8DJ	8F#J	.	.
8CL	4E	8eL	4a
8BBJ	.	8dJ	.
=21	=21	=21	=21
8CL	2A	2c	4e
8AAJ	.	.	.
4D	.	.	4f#
4GG;	4G;	4B;	4g;
4D	4F#	4d	4a
=22	=22	=22	=22
8GGL	2.G	[2d	4b
8AAJ	.	.	.
4BB	.	.	4g
2C	.	8dL]	2e
.	.	8BJ	.
.	8GL	4c	.
.	8F#J	.	.
=23	=23	=23	=23
4G;	4G;	4B;	4d;
4F#	2A	2d	8aL
.	.	.	16bL
.	.	.	16ccJJ
8GL	.	.	2b
8F#J	.	.	.
8EL	[4G	[4e	.
8DJ	.	.	.
=24	=24	=24	=24
8CL	4G]	4e]	2a
8AAJ	.	.	.
4D	16F#LL	8dL	.
.	16EJ	.	.
.	8F#J	8cJ	.
4GG;	4D;	4B;	4g;
==	==	==	==
*-	*-	*-	*-
!!!YOR1: 371 vierstimmige Choralges&auml;nge von Johann Sebastian Bach, 
!!!YOR2: 4th ed. by Alfred D&ouml;rffel (Leipzig: Breitkopf und H&auml;rtel, 
!!!YOR2: c.1875). 178 pp. Plate "V.A.10".  reprint: J.S. Bach, 371 Four-Part 
!!!YOR4: Chorales (New York: Associated Music Publishers, Inc., c.1940).
!!!SMS: B&H, 4th ed, Alfred D&ouml;rffel, c.1875, plate V.A.10
!!!EED:  Craig Stuart Sapp
!!!EEV:  2009/05/22
